X: 12
T:Polska
M:3/4
L:1/8
S:David Neiman
R:Polska
O:Sweden
K:Am
A>B c<d e>^g|a>a (3^ga^g) ^g>e|=g>g (3^fg^f)d2|e>e ^c<AB2|1c>B c<d e2|e6
:|2c2d B^G3|A2A3B|:
c2 c>d B>^G|A2 A>^G E>B|c2 c>d B>^G|A2 A>c e>B|c2 c>d B>^G|A2 A>^G
 E>B|c2 c>d B>^G|1A2A3B:|2A2A4||
